X: 148
T:Missa Sine nomine / Kyrie
N: Derived from Jos1202a-Missa_Sine_nomine-Kyrie.krn
C: Josquin des Prez
%%abc-version 2.0
%%abcx-abcm2ps-target-version 5.9.1 (29 Sep 2008)
%%abc-creator hum2abc beta
%%abcx-conversion-date 2019/02/12 16:15:45
%%abc-edited-by Jesse Rodin
%%abc-edited-by Jesse Rodin; Victoria Chang 2011/04/06/; JR 2013/02 (text)
%%abcx-initial-encoding-date 2013/03/08/
%%humdrum-veritas 1110735777
%%humdrum-veritas-data 3488886344
%%linebreak <none>
%%barnumbers 0
L: 1/4
M: 3/1
Q: 1/2=120
%%staves [1 2 3 4]
V: 1 clef=treble
V: 2 clef=treble-8
V: 3 clef=treble-8
V: 4 clef=bass
K: C
[V:1] A12- | 
[V:2] A8D4 | 
[V:3] z12 | 
[V:4] z12 | 
[V:1] A8D4 | 
[V:2] A6F2_B4 | 
[V:3] z12 | 
[V:4] z12 | 
[V:1] A6G2_B4 | 
[V:2] A4z2c2d2e2 | 
[V:3] z12 | 
[V:4] z12 | 
[V:1] A4z2A4G2 | 
[V:2] f8z2c2 | 
[V:3] z12 | 
[V:4] z12 | 
[V:1] _B4A8 | 
[V:2] d2e2f3ed2c2 | 
[V:3] z12 | 
[V:4] z12 | 
[V:1] z2A4G2_B4 | 
[V:2] d2A2c3BG2d2- | 
[V:3] z12 | 
[V:4] z12 | 
[V:1] A4G2E2F4 | 
[V:2] dcA2B2c2d2A2- | 
[V:3] z12 | 
[V:4] z12 | 
[V:1] E4z4c4 | 
[V:2] A2c3BG2A4 | 
[V:3] e12- | 
[V:4] z12 | 
[V:1] B3AB2c4BA | 
[V:2] G4z4z2A2 | 
[V:3] e8A4 | 
[V:4] E,8F,4 | 
[V:1] G4z2d3cA2 | 
[V:2] B2c2B3Ad4 | 
[V:3] e6d2f4 | 
[V:4] E,4G,3F,D,4 | 
[V:1] c4B4z2d2- | 
[V:2] c3de4z2B2 | 
[V:3] e4z2e4d2 | 
[V:4] A,4E,4G,3F, | 
[V:1] dcA2c4B4 | 
[V:2] d4c2BAG4 | 
[V:3] f4e8 | 
[V:4] D,4A,3G,E,4 | 
[V:1] c4B4A4 | 
[V:2] A4B4z2c2 | 
[V:3] z2e4d2f4 | 
[V:4] z4G,4F,3E, | 
[V:1] G4z2G2E3F | 
[V:2] c3BA2G2A4 | 
[V:3] e4d2B2c4 | 
[V:4] C,4D,2E,2A,,4 | 
[V:1] G12 ||  
[V:2] G12 ||  
[V:3] B12 ||  
[V:4] E,12 ||  
[V:1]  [K:C] [K:clef=treble][M:2/1]A8 | 
[V:2]  [K:C] [K:clef=treble-8][M:2/1]z8 | 
[V:3]  [K:C] [K:clef=treble-8][M:2/1]z8 | 
[V:4]  [K:C] [K:clef=bass][M:2/1]z8 | 
[V:1] G4A4- | 
[V:2] z8 | 
[V:3] z8 | 
[V:4] z8 | 
[V:1] A2B2c2A2 | 
[V:2] A8 | 
[V:3] z8 | 
[V:4] z8 | 
[V:1] B4A4 | 
[V:2] G4A4- | 
[V:3] z8 | 
[V:4] z8 | 
[V:1] z4A4 | 
[V:2] A2B2c2A2 | 
[V:3] z8 | 
[V:4] z8 | 
[V:1] G4A4- | 
[V:2] B4A4 | 
[V:3] z8 | 
[V:4] z8 | 
[V:1] A2B2c2A2 | 
[V:2] z4A4 | 
[V:3] z8 | 
[V:4] z8 | 
[V:1] B4A4 | 
[V:2] G2d6 | 
[V:3] z8 | 
[V:4] z8 | 
[V:1] c4B4- | 
[V:2] c2e4d2- | 
[V:3] z8 | 
[V:4] z8 | 
[V:1] B2A2c2B2- | 
[V:2] d4c2e2 | 
[V:3] z8 | 
[V:4] z8 | 
[V:1] B2A2c2B2- | 
[V:2] d3cA2B2 | 
[V:3] z8 | 
[V:4] z8 | 
[V:1] BAA4G2 | 
[V:2] c2d2B4 | 
[V:3] z8 | 
[V:4] z8 | 
[V:1] A2c2B2G2 | 
[V:2] A4G2E2 | 
[V:3] e8 | 
[V:4] z8 | 
[V:1] A4G4 | 
[V:2] F4E2c2 | 
[V:3] d4e4- | 
[V:4] z8 | 
[V:1] z8 | 
[V:2] c2BAG4 | 
[V:3] e2f2g2e2 | 
[V:4] E,8 | 
[V:1] A4G4 | 
[V:2] d4B2c2- | 
[V:3] f4e4 | 
[V:4] D,4E,4- | 
[V:1] c4B2G2 | 
[V:2] c2A2B2c2 | 
[V:3] z4e4 | 
[V:4] E,2F,2G,2E,2 | 
[V:1] A4G4 | 
[V:2] A4B2c2- | 
[V:3] d4e4- | 
[V:4] F,4E,4 | 
[V:1] c4B2G2 | 
[V:2] c2A2B2c2 | 
[V:3] e2f2g2e2 | 
[V:4] z4E,4 | 
[V:1] A3BcAc2 | 
[V:2] F4z2c2 | 
[V:3] f4e4 | 
[V:4] D,2A,6 | 
[V:1] B2d4c2 | 
[V:2] d2G2_B2F2 | 
[V:3] g4f4- | 
[V:4] G,2_B,4A,2- | 
[V:1] A2c2B2d2 | 
[V:2] c3de2d2 | 
[V:3] f2e2g2f2- | 
[V:4] A,4G,2_B,2 | 
[V:1] c3BG2A2 | 
[V:2] z2e4d2- | 
[V:3] f2e2g2f2- | 
[V:4] A,3G,E,2F,2 | 
[V:1] B2c2A4 | 
[V:2] dcA3GAB | 
[V:3] fee4d2 | 
[V:4] G,2A,2F,4 | 
[V:1] G8 ||  
[V:2] c2B2B4 ||  
[V:3] e8 ||  
[V:4] E,8 ||  
[V:1]  [K:C] [K:clef=treble][M:3/1]A4G2A4F2 | 
[V:2]  [K:C] [K:clef=treble-8][M:3/1]A4c4d4 | 
[V:3]  [K:C] [K:clef=treble-8][M:3/1]z12 | 
[V:4]  [K:C] [K:clef=bass][M:3/1]z12 | 
[V:1] G2E2F2G2E4 | 
[V:2] B2c2A2B2c4 | 
[V:3] z12 | 
[V:4] z12 | 
[V:1] z2D2E2F2G2D2 | 
[V:2] d4z2D2E2F2 | 
[V:3] z12 | 
[V:4] z12 | 
[V:1] E2F2G2A2z2A2 | 
[V:2] G2D2E2F2G2A2 | 
[V:3] z12 | 
[V:4] z12 | 
[V:1] G2A2F2E2G3E | 
[V:2] _B2A2z2c2=B2c2 | 
[V:3] z12 | 
[V:4] z12 | 
[V:1] F2G2E2G2F2D2 | 
[V:2] A2G2c4A2B2 | 
[V:3] z12 | 
[V:4] z12 | 
[V:1] E2F2G2A4^G2 | 
[V:2] c2d3cA2B4 | 
[V:3] z12 | 
[V:4] z12 | 
[V:1] A4z2B2c3B | 
[V:2] A3GF2E2A4 | 
[V:3] e4d2e4c2 | 
[V:4] z12 | 
[V:1] A2d2c2A4^G2 | 
[V:2] F2G2A2D2E4 | 
[V:3] d2B2c2d2B4 | 
[V:4] z12 | 
[V:1] A2c2B2A3FA2 | 
[V:2] F2f2g2e2f2d2 | 
[V:3] z2A2B2c2d2A2 | 
[V:4] A,4G,2A,2D,2F,2 | 
[V:1] G4z2c2B2c2 | 
[V:2] e4f2c2d2c2 | 
[V:3] B2c2d2e2z2e2 | 
[V:4] E,4D,2A,2G,2A,2 | 
[V:1] A2G2A2B2A2B2 | 
[V:2] d2B2A2e2f2d2 | 
[V:3] d2e2c2B2d3B | 
[V:4] F,2E,2z2G,2F,2G,2 | 
[V:1] G2z2G2F2G2A2 | 
[V:2] e2f2d4z2c2 | 
[V:3] c2d2B2d2c2A2 | 
[V:4] E,2D,2z2D,2E,2F,2 | 
[V:1] G2c3BG2A4 | 
[V:2] B2A2B2c2A3B | 
[V:3] B2c2d2e4d2 | 
[V:4] G,2A,3G,E,2F,4 | 
[V:1] G2c2B2A4^G2 | 
[V:2] cAe4c2B4 | 
[V:3] e12- | 
[V:4] E,12 | 
[V:1] A12 |]  
[V:2] A12 |]  
[V:3] e12 |]  
[V:4] A,,12 |]  



